X: 41381
T: Twas In The Month Of January
R: jig
M: 6/8
K: Fmajor
c|:"C"g2 f g2 c|gfe fec|"Bb"B2 B B2 d|"C"c4 ga|
"Bb"bab g2 a|"C"bag c'2a|g2 c edc|"F"f4 ga|
"Bb"bab g2 a|"C"bag c'2 a|g2 c ede|"F"f4 ef|
"C"g2 eg2 e|"F"fec ecB|"Bb"B2 BB2 d|"C"c6:|

